storage/app/icons/phosphoricons/duotone/arrow-square-down-left-duotone.svg

<svg xmlns="http://www.w3.org/2000/svg" fill="currentColor" viewBox="0 0 256 256"><path d="M216 48v160a8 8 0 0 1-8 8H48a8 8 0 0 1-8-8V48a8 8 0 0 1 8-8h160a8 8 0 0 1 8 8" opacity=".2"/><path d="M208 32H48a16 16 0 0 0-16 16v160a16 16 0 0 0 16 16h160a16 16 0 0 0 16-16V48a16 16 0 0 0-16-16m0 176H48V48h160ZM88 160v-48a8 8 0 0 1 16 0v28.69l50.34-50.35a8 8 0 0 1 11.32 11.32L115.31 152H144a8 8 0 0 1 0 16H96a8 8 0 0 1-8-8"/></svg>

<svg xmlns="http://www.w3.org/2000/svg" viewBox="0 0 256 256" fill="currentColor"><path d="M216,48V208a8,8,0,0,1-8,8H48a8,8,0,0,1-8-8V48a8,8,0,0,1,8-8H208A8,8,0,0,1,216,48Z" opacity="0.2"/><path d="M208,32H48A16,16,0,0,0,32,48V208a16,16,0,0,0,16,16H208a16,16,0,0,0,16-16V48A16,16,0,0,0,208,32Zm0,176H48V48H208ZM88,160V112a8,8,0,0,1,16,0v28.69l50.34-50.35a8,8,0,0,1,11.32,11.32L115.31,152H144a8,8,0,0,1,0,16H96A8,8,0,0,1,88,160Z"/></svg>
